X: 1
T:L\"astringe Storpolska
R:Polska
O:Sweden
N:Yet Another Soldier's Joy
M:3/4
L:1/16
C:e. Anders Andersson
B:Ben Paley
K:D
A2F2 DFAF DFAF| DGBG DGBG DGBG| \
A2F2 DFAF DFAF| F2EE E2E2 E3E |
A2F2 DFAF DFAF| DGBG DGBG DGBG|\
ABcd e2f2 g2e2| dcBc e2d2 d3d::
A2d2 f2a2 bafa| g2b2 b2g2 ageg| \
f2a2 a2fa f2ed| cdef g2eg f2df|\
egec d2AG F2A2|
A2d2 f2a2 bafa| g2b2 b2g2 ageg|\
f2a2 a2fa f2ed| cdef g2eg f2df\
|1 egec e2dc d3d :|2 egec e2dc d4 |]
P:Voice 2
F2D2 A,DFD A,DFD| B,DGD B,DGD B,DGD|\
F2D2 A,DFD A,DFD| F2EE E2C2 A,4|
F2D2 A,DFD A,DFD| B,DGD B,DGD B,DGD| \
EFGA B2A2 c2A2| GFEF G2F2 F3F::
F2A2 d2d2 fdAd| B2g2 g2d2 edBG| \
F2A2 d2Ad d2AF| ABcd e2ce d2Ad|\
cecA F2DA, D2F2|
F2A2 d2d2 fdAd| B2g2 g2d2 edBG|\
F2A2 d2Ad d2AF| ABcd e2ce d2BA \
|1 cecA G2FE [F3A3][FA] :|2 cecA G2FE [F4A4] |]
